static/img/logos/fastify-white-logo.svg

<svg xmlns="http://www.w3.org/2000/svg" width="3213" height="2071" viewBox="0 0 3213 2071"><path fill="#fff" d="m3069 332 97-250-4-16-956 252c102-148 67-266 67-266s-305 195-536 190-305-67-659 46-454 459-557 534c-102 74-423 321-423 321l290-93s-82 78-251 305v1c27 38 146 195 264 161 13-4 28-11 45-19 53 30 124 59 201 67 0 0-52-60-96-130l36-23-6 4 111 40-12-104h1l108 40-13-95 41-20 113-428 468-320-37 94c-95 233-273 288-273 288l-74 29c-56 65-79 81-98 301 45-12 87-14 126-4 200 54 269 295 215 362-13 16-45 45-86 78h-81l-1 66-8 7h-83l-1 64-22 16c-77 2-176-66-176-66 1 62 52 157 52 157l9-5-8 6s208 138 339 87c116-46 417-283 677-395l786-208 104-268-599 158v-242l703-185 104-269-807 213V572ZM1642 843l187-49 2 9-58 151-193 51Zm64 323-193 51 63-162 186-49 3 9Zm252-54-193 51 63-162 186-49 3 9Z"/></svg>

<?xml version="1.0" encoding="UTF-8"?>
<!-- Generated by Pixelmator Pro 3.8 -->
<svg width="3213" height="2071" viewBox="0 0 3213 2071" xmlns="http://www.w3.org/2000/svg">
    <path id="Percorso" fill="#ffffff" stroke="none" d="M 3069 332 L 3166 82 L 3162 66 L 2206 318 C 2308 170 2273 52 2273 52 C 2273 52 1968 247 1737 242 C 1506 237 1432 175 1078 288 C 724 401 624 747 521 822 C 419 896 98 1143 98 1143 L 388 1050 C 388 1050 306 1128 137 1355 L 137 1356 C 164 1394 283 1551 401 1517 C 414 1513 429 1506 446 1498 C 499 1528 570 1557 647 1565 C 647 1565 595 1505 551 1435 L 587 1412 L 581 1416 L 692 1456 L 680 1352 L 681 1352 L 789 1392 L 776 1297 L 817 1277 L 930 849 L 1398 529 L 1361 623 C 1266 856 1088 911 1088 911 L 1014 940 C 958 1005 935 1021 916 1241 C 961 1229 1003 1227 1042 1237 C 1242 1291 1311 1532 1257 1599 C 1244 1615 1212 1644 1171 1677 L 1090 1677 L 1089 1743 L 1081 1750 L 998 1750 L 997 1814 L 975 1830 C 898 1832 799 1764 799 1764 C 800 1826 851 1921 851 1921 L 860 1916 L 852 1922 C 852 1922 1060 2060 1191 2009 C 1307 1963 1608 1726 1868 1614 L 2654 1406 L 2758 1138 L 2159 1296 L 2159 1054 L 2862 869 L 2966 600 L 2159 813 L 2159 572 Z M 1642 843 L 1829 794 L 1831 803 L 1773 954 L 1580 1005 Z M 1706 1166 L 1513 1217 L 1576 1055 L 1762 1006 L 1765 1015 Z M 1958 1112 L 1765 1163 L 1828 1001 L 2014 952 L 2017 961 Z"/>
</svg>
